X: 27230
T: Miss Sarah Drummond Of Perth
R: strathspey
M: 4/4
K: Amixolydian
|:A2 e>d (3Bcd e2|d<g B<g d<g B<G|
|:a2 e<a c<a e>f|g2 d<g B<g d>e|
[1 a2 e<a c<a (3efg|a>f g>B {B}A2 A>e:|
[2 (3agf g>e f>d (3efg|a>f g>B {B}A2 A>e||

